src/icons/svg/save.svg

<svg width="40px" height="40px" viewBox="0 0 40 40" version="1.1" xmlns="http://www.w3.org/2000/svg"
>
    <path d="M37.3333333,36 L37.3333333,11.76 C37.3333333,11.4133333 37.188,11.0666667 36.9333333,10.8133333 L29.1066667,3.05333333 C28.8599789,2.8045242 28.5237027,2.66520978 28.1733333,2.66665535 L26.6666667,2.66665535 L26.6666667,9.33333333 C26.6666667,11.5333333 24.8666667,13.3333333 22.6666667,13.3333333 L9.33333333,13.3333333 C7.13333333,13.3333333 5.33333333,11.5333333 5.33333333,9.33333333 L5.33333333,2.66665535 L4,2.66665535 C3.26666667,2.66665535 2.66666667,3.26666667 2.66666667,4 L2.66666667,36 C2.66666667,36.7333333 3.26666667,37.3333333 4,37.3333333 L6.66666667,37.3333333 L6.66666667,25.3333333 C6.66666667,23.1333333 8.46666667,21.3333333 10.6666667,21.3333333 L29.3333333,21.3333333 C31.5333333,21.3333333 33.3333333,23.1333333 33.3333333,25.3333333 L33.3333333,37.3333333 L36,37.3333333 C36.7346667,37.3333333 37.3333333,36.7333333 37.3333333,36 Z M30.6666667,37.3333333 L30.6666667,25.3333333 C30.6666667,24.6 30.068,24 29.3333333,24 L10.6666667,24 C9.93333333,24 9.33333333,24.6 9.33333333,25.3333333 L9.33333333,37.3333333 L30.6666667,37.3333333 Z M8,2.66666667 L8,9.33333333 C8,10.0666667 8.6,10.6666667 9.33333333,10.6666667 L22.6666667,10.6666667 C23.4013333,10.6666667 24,10.0666667 24,9.33333333 L24,2.66666667 L8,2.66666667 Z M38.8133333,8.92 C39.5746667,9.66666667 40,10.7066667 40,11.76 L40,36 C40,38.2 38.2,40 36,40 L4,40 C1.8,40 0,38.2 0,36 L0,4 C0,1.8 1.8,0 4,0 L28.1733333,0 C29.2413333,0 30.2413333,0.413333333 30.9866667,1.16 L38.8133333,8.92 Z M20,9.33333333 C19.2636203,9.33333333 18.6666667,8.73637967 18.6666667,8 L18.6666667,5.33333333 C18.6666667,4.59695367 19.2636203,4 20,4 C20.7363797,4 21.3333333,4.59695367 21.3333333,5.33333333 L21.3333333,8 C21.3333333,8.73637967 20.7363797,9.33333333 20,9.33333333 Z"
          id="形状"></path>
</svg>

<svg width="40" height="40" xmlns="http://www.w3.org/2000/svg"><path d="M37.333 36V11.76a1.35 1.35 0 0 0-.4-.947l-7.826-7.76a1.307 1.307 0 0 0-.934-.386h-1.506v6.666c0 2.2-1.8 4-4 4H9.333c-2.2 0-4-1.8-4-4V2.667H4c-.733 0-1.333.6-1.333 1.333v32c0 .733.6 1.333 1.333 1.333h2.667v-12c0-2.2 1.8-4 4-4h18.666c2.2 0 4 1.8 4 4v12H36c.735 0 1.333-.6 1.333-1.333zm-6.666 1.333v-12c0-.733-.599-1.333-1.334-1.333H10.667c-.734 0-1.334.6-1.334 1.333v12h21.334zM8 2.667v6.666c0 .734.6 1.334 1.333 1.334h13.334c.734 0 1.333-.6 1.333-1.334V2.667H8zM38.813 8.92A4.002 4.002 0 0 1 40 11.76V36c0 2.2-1.8 4-4 4H4c-2.2 0-4-1.8-4-4V4c0-2.2 1.8-4 4-4h24.173c1.068 0 2.068.413 2.814 1.16l7.826 7.76zM20 9.333A1.333 1.333 0 0 1 18.667 8V5.333a1.333 1.333 0 1 1 2.666 0V8c0 .736-.597 1.333-1.333 1.333z"/></svg>
